X:1
T:Title
%%score 1 ( 2 3 )
L:1/8
Q:1/4=90
M:4/4
K:G
V:1 treble nm="Strings 1, Treble"
V:2 bass nm="Strings 1, Bass"
V:3 bass 
V:1
 z4 z2 [B,G][CA] | [DB]2 [DB]>[DB] [DB]2 [B,D]>[B,D] | [CE] [EG]3- [EG]2 [CE]2 | %3
w: 1.~It~ is~|on ly~ a~ step~ in to~|Ca naan,~ * Then~|
 [B,D]2 [B,D]>[B,D] [DG]2 [DG]2 | [DA]6 [B,G][CA] | [DB]2 [DB]>[DB] [DB]2 [B,D][B,D] | %6
w: why~ do~ you~ i dly~|stand?~ You~ are~|wait ing~ to day~ on~ its~|
 [CE] [EG]3- [EG]2 [CE][CE] | [B,D]2 [B,D]>[Ec] [DB]2 [CA]2 | [B,G]6 [B,G]2 | %9
w: bor ders,~ * You~ are~|view ing~ the~ prom ised~|land.~ This~|
 [CA]2 [CA]>[CA] [CA]2 [CE][CF] | [B,D] [B,G]3- [B,G]2 [B,G]2 | [DA]2 [DA]>[DA] [^CE]2 [CF][CG] | %12
w: land~ is~ a bound ing,~ O~|broth er,~ * With~|corn~ and~ with~ hon ey~ and~|
 [CA]6 [B,G][CA] | [DB]2 [DB]>[DB] [DB]2 [B,D]>[B,D] | [CE] [EG]3- [EG]2 [EA]2 | %15
w: wine;~ Cross~ *|o ver~ to day~ and~ pos|sess~ it,~ * One~|
 [DB]2 [DB]>[B,G] [CA]2 [B,G][CF] | [B,G]6 [GB][Gc] | [Gd]2 [Gd]>[Gd] [Gd]2 [DG]>[DA] | %18
w: step~ and~ it~ all~ shall~ be~|thine.~ * *||
 [GB] [GB]3- [GB]2 [GB]2 | [FA]2 [FA]>[FA] [FA]2 G>[FA] | [GB]6 [GB][Gc] | %21
w: |||
 [Gd]2 [Gd]>[Gd] [Gd]2 [DB]>[DB] | [EA] [EG]3- [EG]2 [EA]2 | [DB]2 [DB]>[B,G] [DA]2 [DG]>[DF] | %24
w: |||
 [DG]6 z2 |] %25
w: |
V:2
 z4 z2 [G,,G,][G,,G,] | [G,,G,]2 [G,,G,]>[G,,G,] [G,,G,]2 [G,,G,]>[G,,G,] | %2
 [C,G,] [C,G,]3- [C,G,]2 [C,G,]2 | [G,,G,]2 [G,,G,]>[G,,G,] [G,,B,]2 [B,,G,]2 | [D,F,]6 G,G, | %5
 G,2 G,>G, G,2 [G,,G,]>[G,,G,] | [C,G,] [C,G,]3- [C,G,]2 [C,G,][C,G,] | %7
 [D,G,]2 [D,G,]>[C,G,] [D,F,]2 [D,A,]2 | [G,,G,]6 [G,,G,]2 | %9
 [D,F,]2 [D,F,]>[D,F,] [D,F,]2 [D,F,][D,A,] | [G,,G,] [G,,G,]3- [G,,G,]2 G,2 | %11
 [D,F,]2 [A,,F,]>[A,,F,] [A,,G,]2 [A,,G,][A,,G,] | [D,F,]6 G,2 | G,2 G,>G, G,2 [G,,G,]>[G,,G,] | %14
 [C,G,] [C,G,]3- [C,G,]2 [C,G,]2 | [D,G,]2 [D,G,]>[D,G,] [D,F,]2 [D,G,][D,A,] | [G,,G,]6 G,[G,A,] | %17
 [G,B,]2 [G,B,]>[G,B,] [G,B,]2 B,>[K:treble]C | [G,D]2 [G,D]>[G,D] [G,D][K:bass][G,D] [G,D]2 | %19
 [D,D]2 [D,D]>[D,D] [D,D]2 B,>D | D2- [B,,D-]>[D,D-] [G,D]2 G,[G,A,] | %21
 [G,B,]2 [G,B,]>[G,B,] [G,B,]2 [G,,D]2 | [C,C]2 [C,C]>[C,C] [C,C][C,C] [C,G,]2 | %23
 [D,G,]2 [D,G,]>[D,G,] [D,C]2 [D,B,]>[D,A,] | [G,,B,]6 z2 |] %25
V:3
 x8 | x8 | x8 | x8 | x8 | x8 | x8 | x8 | x8 | x8 | x8 | x8 | x8 | x8 | x8 | x8 | x8 | %17
 z4 z2 G,2[K:treble] | x5[K:bass] x3 | z4 z2 D,2 | G,,2 z2 z4 | x8 | x8 | x8 | x8 |] %25

